**kern	**kern	**text	**kern	**text	**kern	**text
*staff1	*staff1	*staff1	*staff2	*staff2	*staff3	*staff3
*I"Sopran Alt	*	*	*I"Tenor	*	*I"Bass	*
*clefG2	*	*	*clefGv2	*	*clefF4	*
*k[b-e-]	*	*	*k[b-e-]	*	*k[b-e-]	*
*met(c)	*	*	*met(c)	*	*met(c)	*
*M4/4	*	*	*M4/4	*	*M4/4	*
*^	*	*	*	*	*	*
4.dd/	4.f\	du	.	4.d\	H&ouml;rst	4.B-\	H&ouml;rst
8ee-/	8f\	nicht	.	8d\	du	8B-\	du
=1	=1	=1	=1	=1	=1	=1	=1
4ff/	4f\	die	.	4c\	nicht	4A\	nicht
4dd/	4f\	B&auml;u-	.	4d\	die	4A\	die
4.b-/	4.f\	-me	.	4.d\	B&auml;u-	4.G\	B&auml;u-
8cc/	8en\	rau-	.	8c\	-me	8G\	-me
=2	=2	=2	=2	=2	=2	=2	=2
4b-/	4f\	-schen	.	4d\	rau-	4F\	rau-
4a/	4f\	drau-	.	4c\	-schen	4F\	-schen
4a/	4f\	-ßen	.	4c\	drau-	4E-\	drau-
8g/L	4f\	.	.	8B-/L	-ßen	4E-\	-ßen
8f/J	.	durch	.	8A/J	.	=3	=3
=3	=3	=3	=3	=3	=3	4D\	durch
4f/	4f\	die	.	4B-\	durch	4D\	die
4b-/	4f\	stil-	.	4B-\	die	4C/	stil-
4cc/	4f\	-le	.	4A/	stil-	4BB-/	-le
4dd/	4f\	.	.	4B-\	-le	=4	=4
!!linebreak:original
*v	Rund?	*	*	*	*	*	*
=4	=4	=4	=4	=4	2AA/	Rund?
!!linebreak:original
*^	*	*	*	*	*	*
2ee-/	2f\	.	.	2c\	Rund?	4.B-\	Lockt's
4.dd/	4.f\	.	.	4.d\	Lockt's	8B-\	dich
8ee-/	8f\	nicht,	.	8d\	dich	=5	=5
!!linebreak:original
*v	-ab-	*	*	*	*	*	*
=5	=5	=5	=5	=5	4A\	nicht,
!!linebreak:original
*^	*	*	*	*	*	*
4ff/	4f\	-lau-	.	4c\	nicht,	4A\	hin-
4dd/	4f\	-schen	.	4d\	hin-	4.G\	-ab-
4.b-/	4.f\	von	.	4.d\	-ab-	8G\	-zu-
8cc/	8en\	dem	.	8c\	-zu-	=6	=6
=6	=6	=6	=6	=6	=6	4F\	-lau-
4b-/	4f\	S&ouml;l-	.	4d\	-lau-	4F\	-schen
4a/	4f\	-ler	.	4c\	-schen	4E-\	von
4a/	4f\	in	.	4c\	von	4E-\	dem
4a/	4f\	den	.	4c\	dem	=7	=7
=7	=7	=7	=7	=7	=7	4.D\	S&ouml;l-
4.dd/	4.f#\	Grund,	.	4.A/	S&ouml;l-	8D\	-ler
8cc/	8f#\	lockt's	.	8A/	-ler	4D\	in
4b-/	4f#\	dich	.	4d\	in	4D\	den
4a/	4f#\	nicht,	.	4c\	den	=8	=8
=8	=8	=8	=8	=8	=8	2G\	Grund,
2b-/	2g\	hin-	.	2B-\	Grund,	2r	.
4.dd/	2r	-ab-	.	2r	.	=9	=9
8dd/	.	-zu-	.	=9	=9	1r	.
=9	=9	=9	=9	1r	.	=10	=10
!!pagebreak:original
4cc/	1r	.	.	=10	=10	1BB-	nicht
!!pagebreak:original
4b-/	.	.	.	(2G/	nicht	=11	=11
4a/	.	-lau-	nicht	2En/)	.	4AA/	von
8b-/L	.	-schen	.	=11	=11	4AA/	dem
8g/J	.	von	.	4F/	von	4BB-/	S&ouml;l-
*v	dem	*	*	*	*	*	*
=10	=10	=10	4c\	dem	4BB-/	-ler
!!pagebreak:original
*^	*	*	*	*	*	*
4f/	1c	S&ouml;l-	von	4B-\	S&ouml;l-	=12	=12
4en/	.	.	dem	4B-\	-ler	2C/	in
8g/L	.	.	S&ouml;l-	=12	=12	2C/	den
8e/J	.	.	-ler	2A/	in	=13	=13
8d/L	.	.	.	(4.B-\	den	2.FF/ 2.F/	Grund,
8c/J	.	-ler	in	8c\)	.	4r	.
=11	=11	=11	=11	=13	=13	=14	=14
!!linebreak:original
(2f/	4c\	in	den	(2B-\	Grund,	8B-\	wo
.	4e-\	den	.	4A/)	.	8B-\	die
[2ff/	4d\	.	.	4r	.	8B-\	vie-
.	4d-\	Grund,	Grund,	=14	=14	8B-\	-len
!!linebreak:original
=12	=12	=12	=12	8B-\	wo	4A-\	B&auml;-
4ff/])	2c\	.	.	8B-\	die	4A-\	-che
4f/	.	.	.	8B-\	vie-	=15	=15
4.g/	2en\	.	.	8B-\	-len	2G-\	ge-
8a/	.	die	.	4A-/	B&auml;-	4F\	-hen
=13	=13	=13	=13	4A-/	-che	4r	.
(2g/	(2en\	.	.	=15	=15	=16	=16
4f/)	4f\)	vie-	.	2B-\	ge-	8B-\	wun-
4r	4r	-len	.	4c\	-hen	8B-\	-der-
*v	-che	*	*	*	*	*	*
=14	=14	=14	4r	.	8B-\	-bar
!!linebreak:original
*^	*	*	*	*	*	*
8f/	8d-\	-hen	.	=16	=16	8B-\	im
8f/	8d-\	.	.	8B-\	wun-	4B--\	Mon-
*v	*v	*	*	*	*	*	*
(a-q/	wun-	.	8B-\	-der-	4B--\	-den-
*^	*	*	*	*	*	*
8g-/)	8d-\	.	.	8B-\	-bar	=17	=17
8f/	8d-\	-bar	.	8B-\	im	2.A-\	-schein
4f/	4c\	im	.	4d-\	Mon-	4r	.
4f/	4c\	-den-	.	4d-\	-den-	=18	=18
!!pagebreak:original
=15	=15	=15	=15	=17	=17	8C/	und
2b-/	2en\	.	.	(2f\	-schein	8C/	die
4a/	4f\	-schein	.	4e-\)	.	8C/	stil-
4r	4r	.	.	4r	.	8C/	-len
=16	=16	=16	=16	=18	=18	4D-\	Schl&ouml;s-
!!pagebreak:original
8f/	8d-\	.	.	8e-\	und	4D-\	-ser
8f/	8d-\	.	.	8e-\	die	=19	=19
*v	*v	*	*	*	*	*	*
(a-q/	die	.	8e-\	stil-	2BB-/	se-
*^	*	*	*	*	*	*
8g-/)	8d-\	-len	.	8e-\	-len	4C/	-hen
8f/	8d-\	Schl&ouml;s-	.	4A-/	Schl&ouml;s-	8.B-\	in
4dd-/	4g-\	-ser	.	4A-/	-ser	16B-\	den
4dd-/	4gn\	se-	.	=19	=19	=20	=20
=17	=17	=17	=17	2d-\	se-	4.A-\	Fluß
(2dd-/	2.a-\	-hen	.	4c\	-hen	8A-\	vom
4cc/)	.	in	.	8.c\	in	4A-\	ho-
4r	4r	den	.	16c\	den	4A-\	-hen
*v	Fluß	*	*	*	*	*	*
=18	=18	=18	=20	=20	=21	=21
!!pagebreak:original
*^	*	*	*	*	*	*
8a-/	8g-\	-hen	.	4.c\	Fluß	2G\	Stein,
8a-/	8g-\	.	.	8c\	vom	4r	.
8b-/	8g-\	Stein,	.	4c\	ho-	8.G-\	in
8a-/	8g-\	.	.	4c-\	-hen	16G-\	den
4a-/	4f\	in	.	=21	=21	=22	=22
!!linebreak:original
4a-/	4f\	den	.	2B-\	Stein,	4.F\	Fluß
=19	=19	=19	=19	4r	.	8F\	vom
2ff/	2gn\	.	.	8.B-\	in	4F\	ho-
4een/	4g\	Fluß	.	16B-\	den	4F\	-hen
8.cc/	8.en\	vom	vom	=22	=22	=23	=23
!!linebreak:original
16cc/	16e\	-hen	-hen	4.B-\	Fluß	[1B-	Stein?
=20	=20	=20	=20	8B-\	vom	=24	=24
4.ff/	4.f\	.	.	4c\	ho-	1B-_	.
8cc/	8f\	Stein,	Stein,	4c\	-hen	=25	=25
4cc/	4f\	.	vom	=23	=23	2B-;\]	.
4dd/	4f\	.	-hen	4B-\	Stein,	=||	=||
=21	=21	=21	=21	4d\	vom	4.B-\	Kennst
2ee-/	2e-\	.	.	4.e-\	ho-	8B-\	du
4r	4r	.	Stein?	8d\	-hen	=26	=26
!!linebreak:original
8.b-/	8.e-\	vom	.	=24	=24	4A\	noch
16cc/	16e-\	ho-	.	(1c	Stein?	4A\	die
*v	*v	*	*	*	*	*	*
=22	=22	=22	=25	=25	4.G\	ir-
!!linebreak:original
*^	*	*	*	*	*	*
4.dd/	4.d\	Kennst	.	2d;\)	.	8G\	-ren
8cc/	8d\	du	.	=||	=||	=27	=27
4b-/	4e-\	.	.	4.d\	Kennst	4F\	Lie-
4a/	4e-\	noch	.	8d\	du	4F\	-der
=23	=23	=23	=23	=26	=26	4E-\	aus
!!linebreak:original
[1b-	4d\	die	.	4c\	noch	4E-\	der
.	4f\	ir-	.	4d\	die	=28	=28
.	4.g-\	-ren	.	4.d\	ir-	4D\	al-
.	8f\	Lie-	.	8c\	-ren	4D\	-ten,
=24	=24	=24	=24	=27	=27	4C/	sch&ouml;-
4b-/]	(1e-	-der	.	4d\	Lie-	4BB-/	-nen
4a/	.	aus	.	4c\	-der	=29	=29
4.ee-/	.	der	.	4c\	aus	2AA/	Zeit?
8a/	.	.	.	8B-/L	der	4.B-\	Sie
=25	=25	=25	=25	8A/J	.	8B-\	er-
2b-;/	2f\)	-ten,	.	=28	=28	=30	=30
=||	=||	=||	=||	4B-\	al-	4A\	-wa-
4.dd/	4.f\	sch&ouml;-	.	4B-\	-ten,	4A\	-chen
8ee-/	8f\	-nen	.	4A/	sch&ouml;-	4.G\	al-
*v	Zeit?	*	*	*	*	*	*
=26	=26	=26	4B-\	-nen	8G\	-le
!!linebreak:original
*^	*	*	*	*	*	*
4ff/	4f\	.	.	=29	=29	=31	=31
!!linebreak:original
4dd/	4f\	-wa-	.	2c\	Zeit?	4F\	wie-
4.b-/	4.f\	-chen	.	4.d\	Sie	4F\	-der
8cc/	8en\	-le	.	8d\	er-	4E-\	nachts
=27	=27	=27	=27	=30	=30	4E-\	in
4b-/	4f\	.	.	4c\	-wa-	=32	=32
4a/	4f\	.	.	4d\	-chen	4.D\	Wal-
4a/	4f\	wie-	.	4.d\	al-	8D\	-des-
8g/L	4f\	-der	.	8c\	-le	4D\	-ein-
8f/J	.	in	.	=31	=31	4D\	-sam-
!!linebreak:original
=28	=28	=28	=28	4d\	wie-	=33	=33
4f/	4f\	.	.	4c\	-der	2G\	-keit,
4b-/	4f\	Wal-	.	4c\	nachts	2r	.
4cc/	4f\	-des-	.	4c\	in	=34	=34
4dd/	4f\	-sam-	.	=32	=32	1r	.
=29	=29	=29	=29	4.A/	Wal-	=35	=35
2ee-/	2f\	.	.	8A/	-des-	2.BB-/	wie-
4.dd/	4.f\	-keit,	.	4d\	-ein-	4BB-/	-der
8ee-/	8f\	er-	.	4c\	-sam-	=36	=36
!!pagebreak:original
=30	=30	=30	=30	=33	=33	4AA/	nachts
4ff/	4f\	.	.	2B-\	-keit,	4AA/	in
4dd/	4f\	-wa-	.	2r	.	4BB-/	Wal-
4.b-/	4.f\	-chen	.	=34	=34	4BB-/	-des-
8cc/	8en\	al-	.	1r	.	=37	=37
*v	*v	*	*	*	*	*	*
=31	=31	=31	=35	=35	2C/	-ein-
!!linebreak:original
*^	*	*	*	*	*	*
4b-/	4f\	-der	.	2.G/	wie-	2C/	-sam-
4a/	4f\	nachts	.	4En/	-der	=38	=38
4a/	4f\	.	.	=36	=36	2.FF/ 2.F/	-keit,
!!pagebreak:original
4a/	4f\	in	-der	4F/	nachts	4r	.
=32	=32	=32	=32	4c\	in	=39	=39
4.dd/	4.f#\	.	.	4B-\	Wal-	8B-\	wenn
8cc/	8f#\	.	.	4B-\	-des-	8B-\	die
4b-/	4f#\	Wal-	nachts	=37	=37	8B-\	B&auml;u-
4a/	4f#\	.	Wal-	2A/	-ein-	8B-\	-me
=33	=33	=33	=33	4.B-\	-sam-	4A-\	tr&auml;u-
2b-/	2g\	.	-des-	8c\	.	4A-\	-mend
4.dd/	2r	.	.	=38	=38	=40	=40
!!linebreak:original
8dd/	.	-des-	-ein-	(2B-\	-keit,	2G-\	lau-
=34	=34	=34	=34	4A/)	.	4F\	-schen
4cc/	1r	-ein-	-sam-	4r	.	4r	.
4b-/	.	-sam-	.	=39	=39	=41	=41
4a/	.	.	.	8B-\	wenn	8B-\	und
8b-/L	.	-keit,	-keit,	8B-\	die	8B-\	der
8g/J	.	.	.	8B-\	B&auml;u-	8B-\	Flie-
=35	=35	=35	=35	8B-\	-me	8B-\	-der
4fn/	2.c\	.	.	4A-/	tr&auml;u-	4B--\	duf-
4en/	.	wenn	.	4A-/	-mend	4B--\	-tet
8g/L	.	die	.	=40	=40	=42	=42
!!linebreak:original
8e/J	.	.	.	2B-\	lau-	2.A-\	schwül
8d/L	4c\	B&auml;u-	.	4c\	-schen	4r	.
8c/J	.	-me	.	4r	.	=43	=43
*v	-mend	*	*	*	*	*	*
=36	=36	=36	=41	=41	8C/	und
!!pagebreak:original
*^	*	*	*	*	*	*
(2f/	4c\	lau-	.	8B-\	und	8C/	im
.	4e-\	-schen	.	8B-\	der	8C/	Fluß
[2ff/	4d\	.	.	8B-\	Flie-	8C/	die
.	4d-\	und	.	8B-\	-der	4D-\	Ni-
=37	=37	=37	=37	4d-\	duf-	4D-\	-xen
4ff/])	2c\	der	.	4d-\	-tet	=44	=44
!!linebreak:original
4f/	.	.	.	=42	=42	2BB-/	rau-
4.g/	2en\	Flie-	.	(2f\	schwül	4C/	-schen;
8a/	.	duf-	.	4e-\)	.	8.B-\	komm
=38	=38	=38	=38	4r	.	16B-\	her-
(2g/	(2en\	-tet	.	=43	=43	=45	=45
4f/)	4f\)	.	.	8e-\	und	4.A-\	-ab,
4r	4r	schwül	.	8e-\	im	8A-\	hier
=39	=39	=39	=39	8e-\	Fluß	4A-\	ist's
8f/	8d-\	.	.	8e-\	die	4A-\	so
8f/	8d-\	.	.	4A-/	Ni-	=46	=46
*v	*v	*	*	*	*	*	*
(a-q/	im	.	4A-/	-xen	2G\	kühl,
*^	*	*	*	*	*	*
8g-/	8d-\)	die	.	=44	=44	4r	.
!!linebreak:original
8f/	8d-\	Ni-	.	2d-\	rau-	8.G-\	komm
4f/	4c\	-xen	.	4c\	-schen;	16G-\	her-
4f/	4c\	.	.	8.c\	komm	=47	=47
*v	rau-	*	*	*	*	*	*
=40	=40	=40	16c\	her-	4.F\	-ab,
!!linebreak:original
*^	*	*	*	*	*	*
2b-/	2en\	her-	.	=45	=45	8F\	hier
4a/	4f\	.	.	4.c\	-ab,	4F\	ist's
4r	4r	hier	.	8c\	hier	4F\	so
=41	=41	=41	=41	4c\	ist's	=48	=48
!!linebreak:original
8f/	8d-\	ist's	.	4c-\	so	2.BB-/	kühl,
8f/	8d-\	so	.	=46	=46	8.B-\	komm
*v	*v	*	*	*	*	*	*
(a-q/	kühl,	.	2B-\	kühl,	16B-\	her-
*^	*	*	*	*	*	*
8g-/)	8d-\	komm	.	4r	.	=49	=49
!!pagebreak:original
8f/	8d-\	her-	.	8.B-\	komm	2.B-\	-ab,
4dd-/	4g-\	.	.	16B-\	her-	8.B-\	komm
4dd-/	4gn\	hier	.	=47	=47	16B-\	her-
=42	=42	=42	=42	4.B-\	-ab,	=50	=50
(2dd-/	2.a-\	ist's	.	8B-\	hier	2.B-\	-ab,
4cc/)	.	so	.	4c\	ist's	8.B-\	komm
4r	4r	.	.	4c\	so	16E-\	her-
=43	=43	=43	=43	=48	=48	=51	=51
!!linebreak:original
8a-/	8g-\	kühl,	.	(2A/	kühl,	4.E-\	-ab,
8a-/	8g-\	.	.	4B-\)	.	8E-\	hier
8b-/	8g-\	.	komm	8.d\	komm	4F\	ist's
8a-/	8g-\	.	her-	16e-\	her-	4F\	so
4a-/	4f\	.	.	=49	=49	=52	=52
!!pagebreak:original
4a-/	4f\	.	.	2.e-\	-ab,	2.BB-/	kühl,
*v	komm	*	*	*	*	*	*
=44	=44	=44	8.e-\	komm	4r	.
!!linebreak:original
*^	*	*	*	*	*	*
2ff/	2g\	.	komm	16en\	her-	==	==
*	*	*	*	*	*	*-	*-
4een/	4g\	.	her-	=50	=50
8.cc/	8.en\	.	.	2.en\	-ab,
16cc/	16e\	komm	-ab,	8.f\	komm
=45	=45	=45	=45	16e-\	her-
4.ff/	4.f\	her-	.	=51	=51
8cc/	8f\	-ab,	.	4.e-\	-ab,
4cc/	4f\	komm	.	8e-\	hier
4dd/	4f\	her-	.	4d\	ist's
=46	=46	=46	=46	4c\	so
2ee-/	2e-\	-ab,	.	=52	=52
4r	4r	hier	.	(2A/	kühl,
8.b-/	8.e-\	ist's	.	4B-\)	.
16cc/	16e-\	so	.	4r	.
=47	=47	=47	=47	==	==
*	*	*	*	*-	*-
4.dd/	4.d\	.	.
8cc/	8d\	kühl,	.
4b-/	4e-\	.	.
4a/	4e-\	.	.
*v	*v	*	*
=48	=48	=48
!!linebreak:original
*^	*	*
(2cc/	(2e-\	.	.
4b-/)	4d\)	.	.
4r	8.f\	.	.
.	16g-\	.	.
*v	*v	*	*
=49	=49	=49
!!pagebreak:original
*^	*	*
4r	2.g-\	.	.
8.b-/	.	.	.
16cc-/	.	.	.
4cc-/	.	.	.
4r	8.g-\	.	.
.	16gn\	.	.
=50	=50	=50	=50
4r	2.g\	.	.
8.cc/	.	.	.
16dd-/	.	.	.
4dd-/	.	.	.
8.ddn/	8.a-\	.	.
16ee-/	16g\	.	.
=51	=51	=51	=51
4.ee-/	4.g\	.	.
8cc/	8g-\	.	.
4b-/	4f\	.	.
8a/L	4e-\	.	.
8ff/J	.	.	.
=52	=52	=52	=52
(2ff/	(2e-\	.	.
4b-/)	4d\)	.	.
4r	4r	.	.
*v	*v	*	*
==	==	==
*-	*-	*-
